app/assets/images/heroicons/micro/cog-8-tooth.svg

<svg width="16" height="16" viewBox="0 0 16 16" fill="none" xmlns="http://www.w3.org/2000/svg">
<path fill-rule="evenodd" clip-rule="evenodd" d="M6.95498 1.45025C6.98054 1.19465 7.19562 1 7.45249 1H8.54751C8.80438 1 9.01946 1.19465 9.04502 1.45025L9.21486 3.14861C9.69862 3.26937 10.1545 3.46058 10.5709 3.71072L11.892 2.62984C12.0908 2.46717 12.3805 2.48162 12.5622 2.66326L13.3365 3.43755C13.5181 3.61919 13.5326 3.90891 13.3699 4.10772L12.2891 5.42874C12.5393 5.84526 12.7306 6.30125 12.8514 6.78514L14.5498 6.95498C14.8054 6.98054 15 7.19562 15 7.45249V8.54751C15 8.80438 14.8054 9.01946 14.5498 9.04502L12.8514 9.21486C12.7306 9.6986 12.5394 10.1544 12.2893 10.5709L13.3707 11.8925C13.5333 12.0913 13.5189 12.381 13.3372 12.5627L12.5629 13.337C12.3813 13.5186 12.0916 13.5331 11.8928 13.3704L10.5712 12.2891C10.1547 12.5393 9.69873 12.7306 9.21486 12.8514L9.04502 14.5498C9.01946 14.8054 8.80438 15 8.54751 15H7.45249C7.19562 15 6.98054 14.8054 6.95498 14.5498L6.78514 12.8514C6.30138 12.7306 5.84551 12.5394 5.42907 12.2893L4.10799 13.3702C3.90917 13.5328 3.61945 13.5184 3.43781 13.3367L2.66352 12.5624C2.48188 12.3808 2.46743 12.0911 2.6301 11.8923L3.71093 10.5713C3.46068 10.1547 3.2694 9.69875 3.14861 9.21486L1.45025 9.04502C1.19465 9.01946 1 8.80438 1 8.54751V7.45249C1 7.19562 1.19465 6.98054 1.45025 6.95498L3.14861 6.78514C3.26936 6.3014 3.46056 5.84555 3.71069 5.42913L2.62935 4.1075C2.46668 3.90869 2.48113 3.61896 2.66277 3.43733L3.43706 2.66303C3.6187 2.4814 3.90842 2.46695 4.10724 2.62961L5.4288 3.71089C5.84531 3.46066 6.30127 3.26939 6.78514 3.14861L6.95498 1.45025ZM6 8C6 8.53781 6.21228 9.02604 6.55761 9.38547L6.61453 9.44239C6.97396 9.78772 7.46219 10 8 10C9.10457 10 10 9.10457 10 8C10 7.46219 9.78772 6.97396 9.44239 6.61453L9.38547 6.55761C9.02604 6.21228 8.53781 6 8 6C6.89543 6 6 6.89543 6 8Z" fill="#0F172A"/>
</svg>

<svg xmlns="http://www.w3.org/2000/svg" viewBox="0 0 16 16" fill="currentColor" aria-hidden="true" data-slot="icon">
  <path fill-rule="evenodd" d="M6.955 1.45A.5.5 0 0 1 7.452 1h1.096a.5.5 0 0 1 .497.45l.17 1.699c.484.12.94.312 1.356.562l1.321-1.081a.5.5 0 0 1 .67.033l.774.775a.5.5 0 0 1 .034.67l-1.08 1.32c.25.417.44.873.561 1.357l1.699.17a.5.5 0 0 1 .45.497v1.096a.5.5 0 0 1-.45.497l-1.699.17c-.12.484-.312.94-.562 1.356l1.082 1.322a.5.5 0 0 1-.034.67l-.774.774a.5.5 0 0 1-.67.033l-1.322-1.08c-.416.25-.872.44-1.356.561l-.17 1.699a.5.5 0 0 1-.497.45H7.452a.5.5 0 0 1-.497-.45l-.17-1.699a4.973 4.973 0 0 1-1.356-.562L4.108 13.37a.5.5 0 0 1-.67-.033l-.774-.775a.5.5 0 0 1-.034-.67l1.08-1.32a4.971 4.971 0 0 1-.561-1.357l-1.699-.17A.5.5 0 0 1 1 8.548V7.452a.5.5 0 0 1 .45-.497l1.699-.17c.12-.484.312-.94.562-1.356L2.629 4.107a.5.5 0 0 1 .034-.67l.774-.774a.5.5 0 0 1 .67-.033L5.43 3.71a4.97 4.97 0 0 1 1.356-.561l.17-1.699ZM6 8c0 .538.212 1.026.558 1.385l.057.057a2 2 0 0 0 2.828-2.828l-.058-.056A2 2 0 0 0 6 8Z" clip-rule="evenodd"/>
</svg>
